rabbit.svg

<svg fill="currentColor" viewBox="0 0 24 24"><path d="m18.05 21-2.73-4.74c0-1.73-1.07-2.84-2.37-2.84-.9 0-1.68.5-2.08 1.24.33-.19.72-.29 1.13-.29 1.3 0 2.36 1.06 2.36 2.36 0 1.31-1.05 2.38-2.36 2.38h3.3V21H6.79c-.24 0-.49-.09-.67-.28a.95.95 0 0 1 0-1.34l.5-.5c-.34-.15-.62-.38-.9-.62-.22.5-.72.85-1.3.85a1.425 1.425 0 0 1 0-2.85l.47.08v-1.97a4.73 4.73 0 0 1 4.74-4.74h.02c2.12.01 3.77.84 3.77-.47 0-.93.2-1.3.54-1.82-.73-.34-1.56-.55-2.43-.55-.53 0-.95-.42-.95-.95 0-.43.28-.79.67-.91l-.67-.04c-.52 0-.95-.42-.95-.94 0-.53.43-.95.95-.95h.95c2.1 0 3.94 1.15 4.93 2.85l.28-.01c.71 0 1.37.23 1.91.61l.45.38c2.17 1.95 1.9 3.27 1.9 3.28 0 1.28-1.06 2.33-2.35 2.33l-.49-.05v.08c0 1.11-.48 2.1-1.23 2.8L20.24 21zm.11-13.26c-.53 0-.95.42-.95.94 0 .53.42.95.95.95.52 0 .95-.42.95-.95 0-.52-.43-.94-.95-.94"/></svg>

<svg  viewBox="0 0 24 24" fill="currentColor"><path  d="M18.05,21L15.32,16.26C15.32,14.53 14.25,13.42 12.95,13.42C12.05,13.42 11.27,13.92 10.87,14.66C11.2,14.47 11.59,14.37 12,14.37C13.3,14.37 14.36,15.43 14.36,16.73C14.36,18.04 13.31,19.11 12,19.11H15.3V21H6.79C6.55,21 6.3,20.91 6.12,20.72C5.75,20.35 5.75,19.75 6.12,19.38V19.38L6.62,18.88C6.28,18.73 6,18.5 5.72,18.26C5.5,18.76 5,19.11 4.42,19.11C3.64,19.11 3,18.47 3,17.68C3,16.9 3.64,16.26 4.42,16.26L4.89,16.34V14.37C4.89,11.75 7,9.63 9.63,9.63H9.65C11.77,9.64 13.42,10.47 13.42,9.16C13.42,8.23 13.62,7.86 13.96,7.34C13.23,7 12.4,6.79 11.53,6.79C11,6.79 10.58,6.37 10.58,5.84C10.58,5.41 10.86,5.05 11.25,4.93L10.58,4.89C10.06,4.89 9.63,4.47 9.63,3.95C9.63,3.42 10.06,3 10.58,3H11.53C13.63,3 15.47,4.15 16.46,5.85L16.74,5.84C17.45,5.84 18.11,6.07 18.65,6.45L19.1,6.83C21.27,8.78 21,10.1 21,10.11C21,11.39 19.94,12.44 18.65,12.44L18.16,12.39V12.47C18.16,13.58 17.68,14.57 16.93,15.27L20.24,21H18.05M18.16,7.74C17.63,7.74 17.21,8.16 17.21,8.68C17.21,9.21 17.63,9.63 18.16,9.63C18.68,9.63 19.11,9.21 19.11,8.68C19.11,8.16 18.68,7.74 18.16,7.74Z"/></svg>
